projects/seb-pictograms/svg/light/02-Picto-Light_black.svg

<svg xmlns="http://www.w3.org/2000/svg" viewBox="0 0 170 170"><path d="M56.8 136.7h16.1v3H56.8z"/><path d="M28.4 123.8V45.9h19v-3h-19V28.5a9.5 9.5 0 019.5-9.5h53.9a9.5 9.5 0 019.5 9.5h3A12.5 12.5 0 0091.8 16H37.9a12.5 12.5 0 00-12.5 12.5v113A12.5 12.5 0 0037.9 154h53.9a12.5 12.5 0 0012.5-12.5v-17.7zM91.8 151H37.9a9.5 9.5 0 01-9.5-9.5v-14.7h72.9v14.7a9.5 9.5 0 01-9.5 9.5z"/><path d="M85.8 55h30.9v3H85.8z"/><path d="M121.2 114.5h-14.7a1.5 1.5 0 01-1.5-1.5v-10H93.2v10a1.5 1.5 0 01-1.5 1.5H76.9a1.5 1.5 0 01-1.5-1.5v-11.3a31 31 0 01-20.8-20.9H49a1.5 1.5 0 01-1.5-1.5V64.5A1.5 1.5 0 0149 63h5.5a31.1 31.1 0 0117.7-19.7V31.8a1.5 1.5 0 011.5-1.5 12.1 12.1 0 0112 10.6h27.4a31.5 31.5 0 0110.7 61.1l-1 .4V113a1.5 1.5 0 01-1.6 1.5zm-13.3-3h11.8v-10.3a1.5 1.5 0 011.1-1.4l1.9-.6a28.5 28.5 0 00-9.6-55.3H84.3a1.5 1.5 0 01-1.5-1.5 9.1 9.1 0 00-7.6-9v11a1.5 1.5 0 01-1 1.4 28.1 28.1 0 00-17.1 19.1 1.5 1.5 0 01-1.4 1.1h-5.2v11.8h5.2a1.5 1.5 0 011.5 1.1 28 28 0 0020.1 20.2 1.5 1.5 0 011.1 1.5v10.9h11.8v-10a1.5 1.5 0 011.5-1.5h14.8a1.5 1.5 0 011.5 1.5z"/></svg>

<svg id="PIKTO_LIGHT" xmlns="http://www.w3.org/2000/svg" viewBox="0 0 170 170"><title>light_black</title><rect x="56.8" y="136.7" width="16.1" height="3"/><path d="M28.4,123.8V45.9h19v-3h-19V28.5A9.5,9.5,0,0,1,37.9,19H91.8a9.5,9.5,0,0,1,9.5,9.5h3A12.5,12.5,0,0,0,91.8,16H37.9A12.5,12.5,0,0,0,25.4,28.5v113A12.5,12.5,0,0,0,37.9,154H91.8a12.5,12.5,0,0,0,12.5-12.5V123.8ZM91.8,151H37.9a9.5,9.5,0,0,1-9.5-9.5V126.8h72.9v14.7A9.5,9.5,0,0,1,91.8,151Z"/><rect x="85.8" y="55" width="30.9" height="3"/><path d="M121.2,114.5H106.5A1.5,1.5,0,0,1,105,113V103H93.2v10a1.5,1.5,0,0,1-1.5,1.5H76.9a1.5,1.5,0,0,1-1.5-1.5V101.7A31,31,0,0,1,54.6,80.8H49a1.5,1.5,0,0,1-1.5-1.5V64.5A1.5,1.5,0,0,1,49,63h5.5A31.1,31.1,0,0,1,72.2,43.3V31.8a1.5,1.5,0,0,1,1.5-1.5,12.1,12.1,0,0,1,12,10.6h27.4A31.5,31.5,0,0,1,123.8,102l-1,.4V113A1.5,1.5,0,0,1,121.2,114.5Zm-13.3-3h11.8V101.2a1.5,1.5,0,0,1,1.1-1.4l1.9-.6a28.5,28.5,0,0,0-9.6-55.3H84.3a1.5,1.5,0,0,1-1.5-1.5,9.1,9.1,0,0,0-7.6-9v11a1.5,1.5,0,0,1-1,1.4A28.1,28.1,0,0,0,57.1,64.9,1.5,1.5,0,0,1,55.7,66H50.5V77.8h5.2a1.5,1.5,0,0,1,1.5,1.1A28,28,0,0,0,77.3,99.1a1.5,1.5,0,0,1,1.1,1.5v10.9H90.2v-10a1.5,1.5,0,0,1,1.5-1.5h14.8a1.5,1.5,0,0,1,1.5,1.5Z"/></svg>
